.github/assets/header-light.svg

<svg width="1584" height="204" viewBox="0 0 1584 204" fill="none" xmlns="http://www.w3.org/2000/svg">
<g clip-path="url(#clip0_1715_234)">
<path d="M0 32C0 14.3269 14.3269 0 32 0H1552C1569.67 0 1584 14.3269 1584 32V204H0V32Z" fill="white"/>
<rect opacity="0.1" x="770" y="-150" width="1080" height="512" rx="256" fill="url(#paint0_radial_1715_234)"/>
<rect opacity="0.1" x="-366" y="-150" width="1180" height="512" rx="256" fill="url(#paint1_radial_1715_234)"/>
<rect opacity="0.1" x="-206" y="-195" width="2032" height="437" rx="218.5" fill="url(#paint2_radial_1715_234)" fill-opacity="0.4"/>
<rect opacity="0.1" x="477" y="-165" width="501" height="437" rx="218.5" fill="url(#paint3_radial_1715_234)" fill-opacity="0.4"/>
<rect y="55" width="1584" height="157" fill="url(#paint4_linear_1715_234)"/>
<g filter="url(#filter0_dddd_1715_234)">
<rect x="726" y="55.2922" width="132" height="132" rx="12" fill="white" fill-opacity="0.5"/>
</g>
<g filter="url(#filter1_dddd_1715_234)">
<rect x="732" y="63.2922" width="120" height="120" rx="12" fill="white" fill-opacity="0.5"/>
<rect x="731" y="62.2922" width="122" height="122" rx="13" stroke="white" stroke-width="2"/>
<g clip-path="url(#clip1_1715_234)">
<path d="M746.305 79.8631V171.291H753.974C753.974 150.274 771.028 133.239 792.061 133.239C813.097 133.239 830.148 150.278 830.148 171.291H837.817V79.8631H746.305Z" fill="white"/>
<path d="M791.974 151.634C781.105 151.634 772.297 160.434 772.297 171.291H811.647C811.651 160.438 802.843 151.634 791.974 151.634Z" fill="white"/>
<g filter="url(#filter2_d_1715_234)">
<rect x="744.012" y="75.2922" width="95.9888" height="95.9992" rx="4" fill="white"/>
</g>
<path fill-rule="evenodd" clip-rule="evenodd" d="M744 79.2924C744 77.0832 745.791 75.2924 748 75.2924H835.989C838.198 75.2924 839.989 77.0832 839.989 79.2923V167.292C839.989 169.501 838.198 171.292 835.989 171.292H831.945C831.945 149.228 814.06 131.337 791.994 131.337C769.933 131.337 752.044 149.223 752.044 171.292H748C745.791 171.292 744 169.501 744 167.292V79.2924ZM771.26 171.292C771.26 159.892 780.5 150.653 791.9 150.653C803.3 150.653 812.54 159.896 812.536 171.292H771.26Z" fill="url(#paint5_linear_1715_234)"/>
</g>
</g>
<rect y="188" width="1584" height="16" fill="url(#paint6_linear_1715_234)"/>
<rect x="157" width="204" height="157" transform="rotate(90 157 0)" fill="url(#paint7_linear_1715_234)"/>
<rect x="1427" y="204" width="204" height="157" transform="rotate(-90 1427 204)" fill="url(#paint8_linear_1715_234)"/>
</g>
<defs>
<filter id="filter0_dddd_1715_234" x="724" y="31.2922" width="204" height="172" filterUnits="userSpaceOnUse" color-interpolation-filters="sRGB">
<feFlood flood-opacity="0" result="BackgroundImageFix"/>
<feColorMatrix in="SourceAlpha" type="matrix" values="0 0 0 0 0 0 0 0 0 0 0 0 0 0 0 0 0 0 127 0" result="hardAlpha"/>
<feOffset dx="5"/>
<feGaussianBlur stdDeviation="3.5"/>
<feColorMatrix type="matrix" values="0 0 0 0 0.92549 0 0 0 0 0.972549 0 0 0 0 0.980392 0 0 0 0.1 0"/>
<feBlend mode="normal" in2="BackgroundImageFix" result="effect1_dropShadow_1715_234"/>
<feColorMatrix in="SourceAlpha" type="matrix" values="0 0 0 0 0 0 0 0 0 0 0 0 0 0 0 0 0 0 127 0" result="hardAlpha"/>
<feOffset dx="13" dy="-1"/>
<feGaussianBlur stdDeviation="6.5"/>
<feColorMatrix type="matrix" values="0 0 0 0 0.92549 0 0 0 0 0.972549 0 0 0 0 0.980392 0 0 0 0.09 0"/>
<feBlend mode="normal" in2="effect1_dropShadow_1715_234" result="effect2_dropShadow_1715_234"/>
<feColorMatrix in="SourceAlpha" type="matrix" values="0 0 0 0 0 0 0 0 0 0 0 0 0 0 0 0 0 0 127 0" result="hardAlpha"/>
<feOffset dx="28" dy="-2"/>
<feGaussianBlur stdDeviation="8.5"/>
<feColorMatrix type="matrix" values="0 0 0 0 0.92549 0 0 0 0 0.972549 0 0 0 0 0.980392 0 0 0 0.05 0"/>
<feBlend mode="normal" in2="effect2_dropShadow_1715_234" result="effect3_dropShadow_1715_234"/>
<feColorMatrix in="SourceAlpha" type="matrix" values="0 0 0 0 0 0 0 0 0 0 0 0 0 0 0 0 0 0 127 0" result="hardAlpha"/>
<feOffset dx="50" dy="-4"/>
<feGaussianBlur stdDeviation="10"/>
<feColorMatrix type="matrix" values="0 0 0 0 0.92549 0 0 0 0 0.972549 0 0 0 0 0.980392 0 0 0 0.01 0"/>
<feBlend mode="normal" in2="effect3_dropShadow_1715_234" result="effect4_dropShadow_1715_234"/>
<feBlend mode="normal" in="SourceGraphic" in2="effect4_dropShadow_1715_234" result="shape"/>
</filter>
<filter id="filter1_dddd_1715_234" x="660" y="37.2922" width="198" height="164" filterUnits="userSpaceOnUse" color-interpolation-filters="sRGB">
<feFlood flood-opacity="0" result="BackgroundImageFix"/>
<feColorMatrix in="SourceAlpha" type="matrix" values="0 0 0 0 0 0 0 0 0 0 0 0 0 0 0 0 0 0 127 0" result="hardAlpha"/>
<feOffset dx="-3"/>
<feGaussianBlur stdDeviation="3.5"/>
<feColorMatrix type="matrix" values="0 0 0 0 0.854902 0 0 0 0 0.823529 0 0 0 0 0.913725 0 0 0 0.1 0"/>
<feBlend mode="normal" in2="BackgroundImageFix" result="effect1_dropShadow_1715_234"/>
<feColorMatrix in="SourceAlpha" type="matrix" values="0 0 0 0 0 0 0 0 0 0 0 0 0 0 0 0 0 0 127 0" result="hardAlpha"/>
<feOffset dx="-13" dy="-1"/>
<feGaussianBlur stdDeviation="6.5"/>
<feColorMatrix type="matrix" values="0 0 0 0 0.854902 0 0 0 0 0.823529 0 0 0 0 0.913725 0 0 0 0.09 0"/>
<feBlend mode="normal" in2="effect1_dropShadow_1715_234" result="effect2_dropShadow_1715_234"/>
<feColorMatrix in="SourceAlpha" type="matrix" values="0 0 0 0 0 0 0 0 0 0 0 0 0 0 0 0 0 0 127 0" result="hardAlpha"/>
<feOffset dx="-28" dy="-2"/>
<feGaussianBlur stdDeviation="8.5"/>
<feColorMatrix type="matrix" values="0 0 0 0 0.854902 0 0 0 0 0.823529 0 0 0 0 0.913725 0 0 0 0.05 0"/>
<feBlend mode="normal" in2="effect2_dropShadow_1715_234" result="effect3_dropShadow_1715_234"/>
<feColorMatrix in="SourceAlpha" type="matrix" values="0 0 0 0 0 0 0 0 0 0 0 0 0 0 0 0 0 0 127 0" result="hardAlpha"/>
<feOffset dx="-50" dy="-4"/>
<feGaussianBlur stdDeviation="10"/>
<feColorMatrix type="matrix" values="0 0 0 0 0.854902 0 0 0 0 0.823529 0 0 0 0 0.913725 0 0 0 0.01 0"/>
<feBlend mode="normal" in2="effect3_dropShadow_1715_234" result="effect4_dropShadow_1715_234"/>
<feBlend mode="normal" in="SourceGraphic" in2="effect4_dropShadow_1715_234" result="shape"/>
</filter>
<filter id="filter2_d_1715_234" x="712.396" y="43.676" width="159.221" height="159.232" filterUnits="userSpaceOnUse" color-interpolation-filters="sRGB">
<feFlood flood-opacity="0" result="BackgroundImageFix"/>
<feColorMatrix in="SourceAlpha" type="matrix" values="0 0 0 0 0 0 0 0 0 0 0 0 0 0 0 0 0 0 127 0" result="hardAlpha"/>
<feMorphology radius="24.3" operator="erode" in="SourceAlpha" result="effect1_dropShadow_1715_234"/>
<feOffset/>
<feGaussianBlur stdDeviation="27.9581"/>
<feComposite in2="hardAlpha" operator="out"/>
<feColorMatrix type="matrix" values="0 0 0 0 0.259053 0 0 0 0 0.926709 0 0 0 0 0.52709 0 0 0 0.4 0"/>
<feBlend mode="normal" in2="BackgroundImageFix" result="effect1_dropShadow_1715_234"/>
<feBlend mode="normal" in="SourceGraphic" in2="effect1_dropShadow_1715_234" result="shape"/>
</filter>
<radialGradient id="paint0_radial_1715_234" cx="0" cy="0" r="1" gradientUnits="userSpaceOnUse" gradientTransform="translate(1310 106) rotate(-180) scale(540 256)">
<stop stop-color="#2DD4BF"/>
<stop offset="1" stop-color="#2DD4BF" stop-opacity="0"/>
</radialGradient>
<radialGradient id="paint1_radial_1715_234" cx="0" cy="0" r="1" gradientUnits="userSpaceOnUse" gradientTransform="translate(224 106) rotate(-180) scale(590 256)">
<stop stop-color="#9065F5"/>
<stop offset="1" stop-color="#9065F5" stop-opacity="0"/>
</radialGradient>
<radialGradient id="paint2_radial_1715_234" cx="0" cy="0" r="1" gradientUnits="userSpaceOnUse" gradientTransform="translate(810 23.5) rotate(1.59397) scale(1016.39 222.072)">
<stop stop-color="#9065F5"/>
<stop offset="0.998016" stop-color="#9065F5" stop-opacity="0"/>
</radialGradient>
<radialGradient id="paint3_radial_1715_234" cx="0" cy="0" r="1" gradientUnits="userSpaceOnUse" gradientTransform="translate(727.5 53.5) rotate(6.43937) scale(252.09 220.757)">
<stop stop-color="#9065F5"/>
<stop offset="0.998016" stop-color="#9065F5" stop-opacity="0"/>
</radialGradient>
<linearGradient id="paint4_linear_1715_234" x1="792" y1="212" x2="792" y2="55" gradientUnits="userSpaceOnUse">
<stop stop-color="white"/>
<stop offset="1" stop-color="white" stop-opacity="0"/>
</linearGradient>
<linearGradient id="paint5_linear_1715_234" x1="791.994" y1="75.2924" x2="791.994" y2="171.292" gradientUnits="userSpaceOnUse">
<stop stop-color="#4DD684"/>
<stop offset="1" stop-color="#3FCC78"/>
</linearGradient>
<linearGradient id="paint6_linear_1715_234" x1="792" y1="204" x2="792" y2="188" gradientUnits="userSpaceOnUse">
<stop stop-color="white"/>
<stop offset="1" stop-color="white" stop-opacity="0"/>
</linearGradient>
<linearGradient id="paint7_linear_1715_234" x1="259" y1="157" x2="259" y2="0" gradientUnits="userSpaceOnUse">
<stop stop-color="white"/>
<stop offset="1" stop-color="white" stop-opacity="0"/>
</linearGradient>
<linearGradient id="paint8_linear_1715_234" x1="1529" y1="361" x2="1529" y2="204" gradientUnits="userSpaceOnUse">
<stop stop-color="white"/>
<stop offset="1" stop-color="white" stop-opacity="0"/>
</linearGradient>
<clipPath id="clip0_1715_234">
<path d="M0 32C0 14.3269 14.3269 0 32 0H1552C1569.67 0 1584 14.3269 1584 32V204H0V32Z" fill="white"/>
</clipPath>
<clipPath id="clip1_1715_234">
<rect x="744" y="75.2922" width="96" height="96" rx="8" fill="white"/>
</clipPath>
</defs>
</svg>

<svg width="1584" height="204" fill="none" xmlns="http://www.w3.org/2000/svg"><g clip-path="url(#a)"><mask id="c" style="mask-type:alpha" maskUnits="userSpaceOnUse" x="0" y="0" width="1584" height="204"><path transform="rotate(-90 0 204)" fill="url(#b)" d="M0 204h204v1584H0z"/></mask><g mask="url(#c)"><mask id="e" style="mask-type:alpha" maskUnits="userSpaceOnUse" x="0" y="0" width="1584" height="204"><path transform="rotate(90 1584 0)" fill="url(#d)" d="M1584 0h204v1584h-204z"/></mask><g mask="url(#e)"><mask id="g" style="mask-type:alpha" maskUnits="userSpaceOnUse" x="0" y="0" width="1584" height="204"><path fill="url(#f)" d="M0 0h1584v204H0z"/></mask><g mask="url(#g)"><path fill="#fff" d="M0 0h1584v204H0z"/><rect opacity=".1" x="770" y="-150" width="1080" height="512" rx="256" fill="url(#h)"/><rect opacity=".1" x="-366" y="-150" width="1180" height="512" rx="256" fill="url(#i)"/><rect opacity=".1" x="-206" y="-195" width="2032" height="437" rx="218.5" fill="url(#j)" fill-opacity=".3"/><rect opacity=".1" x="477" y="-165" width="501" height="437" rx="218.5" fill="url(#k)" fill-opacity=".4"/></g></g></g><g filter="url(#l)"><rect x="731" y="62" width="122" height="123" rx="12" fill="#fff" fill-opacity=".5"/></g><g filter="url(#m)"><rect x="732" y="63.292" width="120" height="120" rx="12" fill="#fff" fill-opacity=".5"/><rect x="731" y="62.292" width="122" height="122" rx="13" stroke="#fff" stroke-width="2"/><g clip-path="url(#n)"><path d="M746.305 79.863v91.428h7.669c0-21.017 17.054-38.052 38.087-38.052 21.036 0 38.087 17.039 38.087 38.052h7.669V79.863h-91.512Z" fill="#fff"/><path d="M791.974 151.634c-10.869 0-19.677 8.8-19.677 19.657h39.35c.004-10.853-8.804-19.657-19.673-19.657Z" fill="#fff"/><g filter="url(#o)"><rect x="744.012" y="75.292" width="95.989" height="95.999" rx="4" fill="#fff"/></g><path fill-rule="evenodd" clip-rule="evenodd" d="M744 79.292a4 4 0 0 1 4-4h87.989a4 4 0 0 1 4 4v88a4 4 0 0 1-4 4h-4.044c0-22.064-17.885-39.955-39.951-39.955-22.061 0-39.95 17.886-39.95 39.955H748a4 4 0 0 1-4-4v-88Zm27.26 92c0-11.4 9.24-20.639 20.64-20.639s20.64 9.243 20.636 20.639H771.26Z" fill="url(#p)"/></g></g></g><defs><radialGradient id="h" cx="0" cy="0" r="1" gradientUnits="userSpaceOnUse" gradientTransform="matrix(-540 0 0 -256 1310 106)"><stop stop-color="#2DD4BF"/><stop offset="1" stop-color="#2DD4BF" stop-opacity="0"/></radialGradient><radialGradient id="i" cx="0" cy="0" r="1" gradientUnits="userSpaceOnUse" gradientTransform="matrix(-590 0 0 -256 224 106)"><stop stop-color="#9065F5"/><stop offset="1" stop-color="#9065F5" stop-opacity="0"/></radialGradient><radialGradient id="j" cx="0" cy="0" r="1" gradientUnits="userSpaceOnUse" gradientTransform="rotate(1.594 -439.66 29125.59) scale(1016.39 222.072)"><stop stop-color="#9065F5"/><stop offset=".998" stop-color="#9065F5" stop-opacity="0"/></radialGradient><radialGradient id="k" cx="0" cy="0" r="1" gradientUnits="userSpaceOnUse" gradientTransform="rotate(6.439 -111.777 6493.034) scale(252.09 220.757)"><stop stop-color="#9065F5"/><stop offset=".998" stop-color="#9065F5" stop-opacity="0"/></radialGradient><linearGradient id="b" x1="102" y1="204" x2="102" y2="1788" gradientUnits="userSpaceOnUse"><stop offset=".797" stop-color="#fff"/><stop offset="1" stop-color="#fff" stop-opacity="0"/></linearGradient><linearGradient id="d" x1="1686" y1="0" x2="1686" y2="1584" gradientUnits="userSpaceOnUse"><stop offset=".904" stop-color="#fff"/><stop offset="1" stop-color="#fff" stop-opacity="0"/></linearGradient><linearGradient id="f" x1="792.446" y1="0" x2="792" y2="204" gradientUnits="userSpaceOnUse"><stop offset=".301" stop-color="#fff"/><stop offset="1" stop-color="#fff" stop-opacity="0"/></linearGradient><linearGradient id="p" x1="791.994" y1="75.292" x2="791.994" y2="171.292" gradientUnits="userSpaceOnUse"><stop stop-color="#4DD684"/><stop offset="1" stop-color="#3FCC78"/></linearGradient><filter id="l" x="729" y="38" width="194" height="163" filterUnits="userSpaceOnUse" color-interpolation-filters="sRGB"><feFlood flood-opacity="0" result="BackgroundImageFix"/><feColorMatrix in="SourceAlpha" values="0 0 0 0 0 0 0 0 0 0 0 0 0 0 0 0 0 0 127 0" result="hardAlpha"/><feOffset dx="5"/><feGaussianBlur stdDeviation="3.5"/><feColorMatrix values="0 0 0 0 0.92549 0 0 0 0 0.972549 0 0 0 0 0.980392 0 0 0 0.1 0"/><feBlend in2="BackgroundImageFix" result="effect1_dropShadow_1722_258"/><feColorMatrix in="SourceAlpha" values="0 0 0 0 0 0 0 0 0 0 0 0 0 0 0 0 0 0 127 0" result="hardAlpha"/><feOffset dx="13" dy="-1"/><feGaussianBlur stdDeviation="6.5"/><feColorMatrix values="0 0 0 0 0.92549 0 0 0 0 0.972549 0 0 0 0 0.980392 0 0 0 0.09 0"/><feBlend in2="effect1_dropShadow_1722_258" result="effect2_dropShadow_1722_258"/><feColorMatrix in="SourceAlpha" values="0 0 0 0 0 0 0 0 0 0 0 0 0 0 0 0 0 0 127 0" result="hardAlpha"/><feOffset dx="28" dy="-2"/><feGaussianBlur stdDeviation="8.5"/><feColorMatrix values="0 0 0 0 0.92549 0 0 0 0 0.972549 0 0 0 0 0.980392 0 0 0 0.05 0"/><feBlend in2="effect2_dropShadow_1722_258" result="effect3_dropShadow_1722_258"/><feColorMatrix in="SourceAlpha" values="0 0 0 0 0 0 0 0 0 0 0 0 0 0 0 0 0 0 127 0" result="hardAlpha"/><feOffset dx="50" dy="-4"/><feGaussianBlur stdDeviation="10"/><feColorMatrix values="0 0 0 0 0.92549 0 0 0 0 0.972549 0 0 0 0 0.980392 0 0 0 0.01 0"/><feBlend in2="effect3_dropShadow_1722_258" result="effect4_dropShadow_1722_258"/><feBlend in="SourceGraphic" in2="effect4_dropShadow_1722_258" result="shape"/></filter><filter id="m" x="660" y="37.292" width="198" height="164" filterUnits="userSpaceOnUse" color-interpolation-filters="sRGB"><feFlood flood-opacity="0" result="BackgroundImageFix"/><feColorMatrix in="SourceAlpha" values="0 0 0 0 0 0 0 0 0 0 0 0 0 0 0 0 0 0 127 0" result="hardAlpha"/><feOffset dx="-3"/><feGaussianBlur stdDeviation="3.5"/><feColorMatrix values="0 0 0 0 0.854902 0 0 0 0 0.823529 0 0 0 0 0.913725 0 0 0 0.1 0"/><feBlend in2="BackgroundImageFix" result="effect1_dropShadow_1722_258"/><feColorMatrix in="SourceAlpha" values="0 0 0 0 0 0 0 0 0 0 0 0 0 0 0 0 0 0 127 0" result="hardAlpha"/><feOffset dx="-13" dy="-1"/><feGaussianBlur stdDeviation="6.5"/><feColorMatrix values="0 0 0 0 0.854902 0 0 0 0 0.823529 0 0 0 0 0.913725 0 0 0 0.09 0"/><feBlend in2="effect1_dropShadow_1722_258" result="effect2_dropShadow_1722_258"/><feColorMatrix in="SourceAlpha" values="0 0 0 0 0 0 0 0 0 0 0 0 0 0 0 0 0 0 127 0" result="hardAlpha"/><feOffset dx="-28" dy="-2"/><feGaussianBlur stdDeviation="8.5"/><feColorMatrix values="0 0 0 0 0.854902 0 0 0 0 0.823529 0 0 0 0 0.913725 0 0 0 0.05 0"/><feBlend in2="effect2_dropShadow_1722_258" result="effect3_dropShadow_1722_258"/><feColorMatrix in="SourceAlpha" values="0 0 0 0 0 0 0 0 0 0 0 0 0 0 0 0 0 0 127 0" result="hardAlpha"/><feOffset dx="-50" dy="-4"/><feGaussianBlur stdDeviation="10"/><feColorMatrix values="0 0 0 0 0.854902 0 0 0 0 0.823529 0 0 0 0 0.913725 0 0 0 0.01 0"/><feBlend in2="effect3_dropShadow_1722_258" result="effect4_dropShadow_1722_258"/><feBlend in="SourceGraphic" in2="effect4_dropShadow_1722_258" result="shape"/></filter><filter id="o" x="712.396" y="43.676" width="159.221" height="159.232" filterUnits="userSpaceOnUse" color-interpolation-filters="sRGB"><feFlood flood-opacity="0" result="BackgroundImageFix"/><feColorMatrix in="SourceAlpha" values="0 0 0 0 0 0 0 0 0 0 0 0 0 0 0 0 0 0 127 0" result="hardAlpha"/><feMorphology radius="24.3" in="SourceAlpha" result="effect1_dropShadow_1722_258"/><feOffset/><feGaussianBlur stdDeviation="27.958"/><feComposite in2="hardAlpha" operator="out"/><feColorMatrix values="0 0 0 0 0.259053 0 0 0 0 0.926709 0 0 0 0 0.52709 0 0 0 0.4 0"/><feBlend in2="BackgroundImageFix" result="effect1_dropShadow_1722_258"/><feBlend in="SourceGraphic" in2="effect1_dropShadow_1722_258" result="shape"/></filter><clipPath id="a"><path d="M0 32C0 14.327 14.327 0 32 0h1520c17.67 0 32 14.327 32 32v172H0V32Z" fill="#fff"/></clipPath><clipPath id="n"><rect x="744" y="75.292" width="96" height="96" rx="8" fill="#fff"/></clipPath></defs></svg>
